X:1
T:Tucker, 89.89.88.89
T:Frederick Booth-Tucker (1853-1929)
T:Tucker, 89.89.88.89
T:Public Domain
C:Frederick Booth-Tucker (1853-1929)
Z:Public Domain
%%score ( 1 2 ) ( 3 4 )
L:1/8
M:4/4
K:Eb
V:1 treble 
V:2 treble 
V:3 bass 
V:4 bass 
V:1
 (B,E) | G3 ^F GFGB | ([EG]4 [B,E]2) E>[EF] | [EG]2 [EG]>[EA] [DF]2 C>[B,D] | (E4 B,2) (B,E) | %5
 (G3 ^F) GFGB | ([EG]4 [B,E]2) E>[EF] | [EG]2 G>A [DF]2 F>G | [B,E]6 [EB]2 | [Ec]2 (A>B) cedc | %10
 (B4 G2) ([DF][EG]) | [FA]3 [GB] [Bd][Ac][GB][FA] | [EG]6 [EB]2 | (c2 A>)B cedc | (B4 G2) E>[EF] | %15
 G2 G>A [DF]2 C>[B,D] | [B,E]6 |] %17
V:2
 B,2 | E4 E2 E2 | x8 | x8 | B,6 x2 | E4 E2 E2 | x8 | x2 E2 x/ D2 x3/2 | x8 | x2 E2 E2 E2 | E6 x2 | %11
 x8 | x8 | E4 E4 | E6 x2 | E4 x4 | x6 |] %17
V:3
 [E,G,]2 | B,3 =A, B,A,B,G, | (B,4 G,2) [G,,B,]>[A,,C] | %3
 [B,,B,]2 [B,,B,]>[B,,C] [B,,A,]2 [B,,A,]2 | [E,G,]6 [E,G,]2 | B,3 =A, B,A,B,G, | %6
 (B,4 G,2) [G,,B,]>[A,,C] | B,2 B,>C [B,,A,]2 [B,,A,]2 | [E,G,]6 [E,G,]2 | %9
 A,2 (C>B,) A,[A,C][A,B,]A, | (G,4 B,2) B,2 | [B,,B,]2 [B,,B,]4 [B,,B,]2 | (E,2 B,,2 E,2) [E,G,]2 | %13
 A,2 C>B, A,CB,A, | (G,4 B,2) [G,,B,]>[A,,C] | B,2 B,>C [B,,A,]2 [B,,A,]2 | [E,G,]6 |] %17
V:4
 x2 | E,4 E,2 E,2 | E,6 x2 | x8 | x8 | E,4 E,2 E,2 | E,6 x2 | B,,4 x4 | x8 | A,2 A,2 x4 | E,6 B,2 | %11
 x8 | B,6 x2 | A,4 A,,4 | E,6 x2 | B,,4 x4 | x6 |] %17

